math-integral.svg

<svg fill="currentColor" viewBox="0 0 24 24"><path d="M11.5 19.1c-.2 1.1-.6 1.9-1.3 2.4s-1.6.6-2.7.4c-.4-.1-1.2-.2-1.5-.4l.5-1.5c.3.1.9.3 1.2.3 1.1.2 1.7-.3 1.9-1.5L12 5.2c.2-1.2.7-2 1.4-2.6.7-.5 1.7-.7 2.8-.5.4.1 1.2.2 1.8.5L17.5 4c-.2-.1-.9-.2-1.2-.3-1.3-.2-2 .4-2.3 1.9z"/></svg>

<svg  viewBox="0 0 24 24" fill="currentColor"><path  d="M11.5 19.1C11.3 20.2 10.9 21 10.2 21.5C9.5 22 8.6 22.1 7.5 21.9C7.1 21.8 6.3 21.7 6 21.5L6.5 20C6.8 20.1 7.4 20.3 7.7 20.3C8.8 20.5 9.4 20 9.6 18.8L12 5.2C12.2 4 12.7 3.2 13.4 2.6C14.1 2.1 15.1 1.9 16.2 2.1C16.6 2.2 17.4 2.3 18 2.6L17.5 4C17.3 3.9 16.6 3.8 16.3 3.7C15 3.5 14.3 4.1 14 5.6L11.5 19.1Z"/></svg>
